X:43
T:Drunken Reel
B:NFID.236b
043drunk_R
S:PT
N:I have replaced |(3EEE| with |~E2| in mm 1,2,5 and 6, and
|(3DDD| with |~D2| in mm 3 and 4.
L:1/8
M:C
R:reel
Q:360
K:Em % dor
GA|BE~E2 BEdE|BE~E2 AGFG|AD~D2 ADFA|AD~D2 ADFA|
BE~E2 BEdE|BEBB d^cBA|d^cde fgfe|d^cAD E|
GB|A^cec d2cB|A^cec ddcB|A^cec d2dB|A2FD E|

%%%

